icons/organization-24.svg

<svg width="24" height="24" viewBox="0 0 24 24" fill="none" xmlns="http://www.w3.org/2000/svg">
<path d="M6.25 12C5.83579 12 5.5 12.3358 5.5 12.75C5.5 13.1642 5.83579 13.5 6.25 13.5H6.75C7.16421 13.5 7.5 13.1642 7.5 12.75C7.5 12.3358 7.16421 12 6.75 12H6.25Z" fill="black"/>
<path d="M5.5 9.25C5.5 8.83579 5.83579 8.5 6.25 8.5H6.75C7.16421 8.5 7.5 8.83579 7.5 9.25C7.5 9.66421 7.16421 10 6.75 10H6.25C5.83579 10 5.5 9.66421 5.5 9.25Z" fill="black"/>
<path d="M6.25 5C5.83579 5 5.5 5.33579 5.5 5.75C5.5 6.16421 5.83579 6.5 6.25 6.5H6.75C7.16421 6.5 7.5 6.16421 7.5 5.75C7.5 5.33579 7.16421 5 6.75 5H6.25Z" fill="black"/>
<path d="M9 12.75C9 12.3358 9.33579 12 9.75 12H10.25C10.6642 12 11 12.3358 11 12.75C11 13.1642 10.6642 13.5 10.25 13.5H9.75C9.33579 13.5 9 13.1642 9 12.75Z" fill="black"/>
<path d="M9.75 8.5C9.33579 8.5 9 8.83579 9 9.25C9 9.66421 9.33579 10 9.75 10H10.25C10.6642 10 11 9.66421 11 9.25C11 8.83579 10.6642 8.5 10.25 8.5H9.75Z" fill="black"/>
<path d="M9 5.75C9 5.33579 9.33579 5 9.75 5H10.25C10.6642 5 11 5.33579 11 5.75C11 6.16421 10.6642 6.5 10.25 6.5H9.75C9.33579 6.5 9 6.16421 9 5.75Z" fill="black"/>
<path d="M13.25 12C12.8358 12 12.5 12.3358 12.5 12.75C12.5 13.1642 12.8358 13.5 13.25 13.5H13.75C14.1642 13.5 14.5 13.1642 14.5 12.75C14.5 12.3358 14.1642 12 13.75 12H13.25Z" fill="black"/>
<path d="M12.5 9.25C12.5 8.83579 12.8358 8.5 13.25 8.5H13.75C14.1642 8.5 14.5 8.83579 14.5 9.25C14.5 9.66421 14.1642 10 13.75 10H13.25C12.8358 10 12.5 9.66421 12.5 9.25Z" fill="black"/>
<path d="M13.25 5C12.8358 5 12.5 5.33579 12.5 5.75C12.5 6.16421 12.8358 6.5 13.25 6.5H13.75C14.1642 6.5 14.5 6.16421 14.5 5.75C14.5 5.33579 14.1642 5 13.75 5H13.25Z" fill="black"/>
<path fill-rule="evenodd" clip-rule="evenodd" d="M2 20C2 21.1046 2.89543 22 4 22H7.75C8.16421 22 8.5 21.6642 8.5 21.25V19H11.5V21.25C11.5 21.6642 11.8358 22 12.25 22H16C16.0922 22 16.183 21.9938 16.2719 21.9817C16.3252 21.9937 16.3806 22 16.4375 22H20.0005C21.1054 22 22 21.1042 22 20V12C22 11.3705 21.7036 10.7777 21.2 10.4L20.7 10.025C20.3686 9.77649 19.8985 9.84364 19.65 10.175C19.4015 10.5064 19.4686 10.9765 19.8 11.225L20.3 11.6C20.4259 11.6944 20.5 11.8426 20.5 12V20C20.5 20.2765 20.2762 20.5 20.0005 20.5H17.937C17.9781 20.3402 18 20.1727 18 20V3C18 1.89543 17.1046 1 16 1H4C2.89543 1 2 1.89543 2 3V20ZM4 20.5C3.72386 20.5 3.5 20.2761 3.5 20V3C3.5 2.72386 3.72386 2.5 4 2.5H16C16.2761 2.5 16.5 2.72386 16.5 3V20C16.5 20.2761 16.2761 20.5 16 20.5H13V18.25C13 17.8358 12.6642 17.5 12.25 17.5H7.75C7.33579 17.5 7 17.8358 7 18.25V20.5H4Z" fill="black"/>
</svg>

<svg xmlns="http://www.w3.org/2000/svg" width="24" height="24" viewBox="0 0 24 24"><path d="M6.25 12a.75.75 0 000 1.5h.5a.75.75 0 000-1.5h-.5zM5.5 9.25a.75.75 0 01.75-.75h.5a.75.75 0 010 1.5h-.5a.75.75 0 01-.75-.75zM6.25 5a.75.75 0 000 1.5h.5a.75.75 0 000-1.5h-.5zM9 12.75a.75.75 0 01.75-.75h.5a.75.75 0 010 1.5h-.5a.75.75 0 01-.75-.75zm.75-4.25a.75.75 0 000 1.5h.5a.75.75 0 000-1.5h-.5zM9 5.75A.75.75 0 019.75 5h.5a.75.75 0 010 1.5h-.5A.75.75 0 019 5.75zM13.25 12a.75.75 0 000 1.5h.5a.75.75 0 000-1.5h-.5zm-.75-2.75a.75.75 0 01.75-.75h.5a.75.75 0 010 1.5h-.5a.75.75 0 01-.75-.75zM13.25 5a.75.75 0 000 1.5h.5a.75.75 0 000-1.5h-.5z"/><path fill-rule="evenodd" d="M2 20a2 2 0 002 2h3.75a.75.75 0 00.75-.75V19h3v2.25c0 .414.336.75.75.75H16c.092 0 .183-.006.272-.018a.753.753 0 00.166.018H20a2 2 0 002-2v-8a2 2 0 00-.8-1.6l-.5-.375a.75.75 0 00-.9 1.2l.5.375a.5.5 0 01.2.4v8a.5.5 0 01-.5.5h-2.063c.041-.16.063-.327.063-.5V3a2 2 0 00-2-2H4a2 2 0 00-2 2v17zm2 .5a.5.5 0 01-.5-.5V3a.5.5 0 01.5-.5h12a.5.5 0 01.5.5v17a.5.5 0 01-.5.5h-3v-2.25a.75.75 0 00-.75-.75h-4.5a.75.75 0 00-.75.75v2.25H4z"/></svg>
